!!!OTL: 224. Sonnenaufgang.
!!!COM: H. G. Nägeli
!!!ODT: 1815
!!!ARE: Europa, Mitteleuropa, Deutschland
!!!SCT: B0224
!!!TXL: @@DE
!!!YEM: Copyright 1995, estate of Helmut Schaffrath.
**kern	**text
*ICvox	*
*Ivox	*
*clefG2	*
*M6/8	*
*k[b-e-]	*
*B-:	*
!LO:TX:a:t=Etwas bewegt.	!
{8f	Jn
=1	=1
4b-	Mor-
8b-	-gen-
4cc	-roth
8cc	ge-
=2	=2
(4dd	-klei-
8cc)	.
4b-}	-det
{8a	be-
=3	=3
4g	-ginnt
8a	ſie
4b-	ih-
8cc	-ren
=4	=4
[4.f	Lauf,
8f]	.
8r}	.
{8a	die
=5	=5
4b-	ſchö-
8a	-ne
4cc	Got-
8b-	-tes-
=6	=6
4.ee-	-ſon-
4dd}	-ne,
{8cc	wie
=7	=7
8.b-L	herr-
16ccJ	.
8b-	-lich
8aL	geht
8gJ	.
8a	ſie
=8	=8
[4.b-	auf!
8b-]	.
8r}	.
==	==
!!!AGN: Tageszeiten - Lied, Morgen
!!!GTL: Tageszeitenlieder
!!!ONB: ESAC (Essen Associative Code) Database: BOEHME
!!!AMT: compound duple
!!!AIN: vox
!!!EED: Helmut Schaffrath
!!!EEV: 1.0
!!H. G. Nägeli. 1815.
!!@@COMMENT:"Gedicht von J. H. G. Demme. Findet ſich in neuern Kirchengeſangbüchern und ſingt man
!!es nach eigner, oder auch nach der Choralweiſe: "Ach bleib mit deiner Gnade.""
!!@@END:
!!!Text: J. H. G. Demme
!!!URL-scan: https://archive.org/details/BoehmeVtLieder1895/page/n203/mode/2up
!!!ENC: Anna Maria Matuszewska
!!!EEV: 2024/24/06
*-	*-
